wp-content/themes/fundawande/assets/video_player/Fullscreen icon.svg

<?xml version="1.0" encoding="UTF-8"?>
<svg width="36px" height="27px" viewBox="0 0 36 27" version="1.1" xmlns="http://www.w3.org/2000/svg" xmlns:xlink="http://www.w3.org/1999/xlink">
    <!-- Generator: sketchtool 51.2 (57519) - http://www.bohemiancoding.com/sketch -->
    <title>87696249-8965-488B-8A3C-7BE2928C4C2C</title>
    <desc>Created with sketchtool.</desc>
    <defs>
        <path d="M599.730114,37.7301136 L599.730114,33.4602273 L604.042614,33.4602273 L604.042614,37.7301136 L604.085227,37.7301136 L604.085227,41.9573864 L595.460227,41.9573864 L595.460227,37.7301136 L599.730114,37.7301136 Z M572.957386,37.7301136 L572.957386,33.4602273 L577.269886,33.4602273 L577.269886,37.7301136 L581.539773,37.7301136 L581.539773,41.9573864 L572.914773,41.9573864 L572.914773,37.7301136 L572.957386,37.7301136 Z M604,23.3125 L604,27.625 L599.772727,27.625 L599.772727,23.3125 L595.545455,23.3125 L595.545455,19 L604,19 L604,23.3125 Z M577.227273,23.3125 L577.227273,27.625 L573,27.625 L573,23.3125 L573,19 L581.454545,19 L581.454545,23.3125 L577.227273,23.3125 Z" id="path-1"></path>
        <filter x="-10.0%" y="-13.0%" width="120.0%" height="125.9%" filterUnits="objectBoundingBox" id="filter-2">
            <feMorphology radius="1" operator="dilate" in="SourceAlpha" result="shadowSpreadOuter1"></feMorphology>
            <feOffset dx="0" dy="0" in="shadowSpreadOuter1" result="shadowOffsetOuter1"></feOffset>
            <feColorMatrix values="0 0 0 0 0   0 0 0 0 0   0 0 0 0 0  0 0 0 0.1 0" type="matrix" in="shadowOffsetOuter1"></feColorMatrix>
        </filter>
    </defs>
    <g id="6.-Video-Player" stroke="none" stroke-width="1" fill="none" fill-rule="evenodd" opacity="0.9">
        <g id="Video-Player-[FWVIDEO001---Tablet]" transform="translate(-770.000000, -521.000000)">
            <g id="Lesson-Content" transform="translate(50.000000, -196.000000)">
                <g id="Video" transform="translate(150.000000, 404.000000)">
                    <g id="Controls" transform="translate(0.000000, 296.000000)">
                        <g id="Fullscreen-icon">
                            <use fill="black" fill-opacity="1" filter="url(#filter-2)" xlink:href="#path-1"></use>
                            <use fill="#FFFFFF" fill-rule="evenodd" xlink:href="#path-1"></use>
                        </g>
                    </g>
                </g>
            </g>
        </g>
    </g>
</svg>

<svg width="36" height="27" viewBox="0 0 36 27" xmlns="http://www.w3.org/2000/svg" xmlns:xlink="http://www.w3.org/1999/xlink"><title>87696249-8965-488B-8A3C-7BE2928C4C2C</title><desc>Created with sketchtool.</desc><defs><path d="M599.73 37.73v-4.27h4.313v4.27h.043v4.227h-8.625v-4.227h4.27zm-26.773 0v-4.27h4.313v4.27h4.27v4.227h-8.625v-4.227h.043zm31.043-14.418v4.313h-4.227v-4.313h-4.227v-4.313h8.455v4.313zm-26.773 0v4.313h-4.227v-8.626h8.455v4.313h-4.227z" id="b"/><filter y="-13%" height="125.9%" filterUnits="objectBoundingBox" id="a"><feMorphology radius="1" operator="dilate" in="SourceAlpha" result="shadowSpreadOuter1"/><feOffset in="shadowSpreadOuter1" result="shadowOffsetOuter1"/><feColorMatrix values="0 0 0 0 0 0 0 0 0 0 0 0 0 0 0 0 0 0 0.1 0" in="shadowOffsetOuter1"/></filter></defs><g transform="translate(-570 -17)" opacity=".9" fill="none"><use fill="#000" filter="url(#a)" xlink:href="#b"/><use fill="#fff" xlink:href="#b"/></g></svg>
